app/assets/images/payment_icons/truemed.svg

<svg width="38" height="24" viewBox="0 0 38 24" fill="none" xmlns="http://www.w3.org/2000/svg">
<path opacity="0.07" d="M35 0H3C1.3 0 0 1.3 0 3V21C0 22.7 1.4 24 3 24H35C36.7 24 38 22.7 38 21V3C38 1.3 36.6 0 35 0Z" fill="black"/>
<path d="M35 1C36.1 1 37 1.9 37 3V21C37 22.1 36.1 23 35 23H3C1.9 23 1 22.1 1 21V3C1 1.9 1.9 1 3 1H35Z" fill="#183B43"/>
<path d="M18.9345 6.9438C18.1352 6.9438 17.4873 7.59157 17.4873 8.39065C17.4873 9.18973 18.1352 9.8375 18.9345 9.8375C19.7338 9.8375 20.3817 9.18973 20.3817 8.39065C20.3809 7.59185 19.7334 6.94458 18.9345 6.9438Z" fill="white"/>
<path d="M18.5367 12.4217L14.3587 16.7827C13.3586 15.8187 12.6882 14.5637 12.4431 13.1966C12.3964 12.9402 12.3644 12.6812 12.3472 12.421L18.5367 12.4217ZM12.3952 11.082C12.7954 8.23571 14.9738 5.96545 17.8018 5.44763C18.2011 5.37458 18.6062 5.33778 19.0121 5.33764C22.3321 5.34441 25.1403 7.79432 25.5965 11.082H12.3952ZM22.5702 17.6294C20.3844 19.0097 17.5982 19.0046 15.4173 17.6168L18.9874 13.8904L22.5702 17.6294ZM25.6487 12.4217C25.5734 13.6294 25.1698 14.7938 24.4815 15.7892C24.2303 16.1518 23.9443 16.4892 23.6274 16.7961L19.4367 12.4245L25.6487 12.4217ZM23.5512 5.41943C19.916 2.90761 14.9322 3.81767 12.4198 7.452C9.90732 11.0864 10.8176 16.0689 14.4529 18.5806C18.0863 21.0911 23.0672 20.1834 25.581 16.5528C28.0912 12.9171 27.1831 7.9359 23.5512 5.41943Z" fill="white"/>
</svg>

<svg xmlns="http://www.w3.org/2000/svg" role="img" viewBox="0 0 38 24" width="38" height="24" aria-labelledby="pi-truemed"><title id="pi-truemed">Truemed</title><g clip-path="url(#pi-a)"><path fill="#000" d="M35 0H3C1.3 0 0 1.3 0 3v18c0 1.7 1.4 3 3 3h32c1.7 0 3-1.3 3-3V3c0-1.7-1.4-3-3-3Z" opacity=".07"/><path fill="#fff" d="M35 1c1.1 0 2 .9 2 2v18c0 1.1-.9 2-2 2H3c-1.1 0-2-.9-2-2V3c0-1.1.9-2 2-2h32Z"/><path fill="#183B43" d="M18.939 6.945a1.447 1.447 0 1 0 0 2.893 1.447 1.447 0 0 0 0-2.893Z"/><path fill="#183B43" d="m18.538 12.42-4.178 4.362a6.596 6.596 0 0 1-1.915-3.584 7.04 7.04 0 0 1-.097-.775l6.19-.002Zm-6.14-1.338a6.67 6.67 0 0 1 6.616-5.745 6.61 6.61 0 0 1 3.774 1.183 6.675 6.675 0 0 1 2.808 4.562H12.397Zm10.173 6.547a6.68 6.68 0 0 1-7.153-.012l3.57-3.725 3.583 3.737Zm3.078-5.208a6.708 6.708 0 0 1-2.026 4.374l-4.19-4.37 6.216-.004Zm-2.098-7.002a8.003 8.003 0 0 0-11.132 2.034 7.998 7.998 0 0 0 2.034 11.128 8.003 8.003 0 0 0 11.13-2.03A8.009 8.009 0 0 0 23.55 5.418Z"/></g><defs><clipPath id="pi-a"><path fill="#fff" d="M0 0h38v24H0z"/></clipPath></defs></svg>
